src/assets/svg/blob-1.svg

<?xml version="1.0" encoding="UTF-8"?>
<svg width="40px" height="40px" viewBox="0 0 40 40" version="1.1" xmlns="http://www.w3.org/2000/svg" xmlns:xlink="http://www.w3.org/1999/xlink">
    <title>Sub-Atomic/Blobs/Blob 1</title>
    <g id="Sub-Atomic/Blobs/Blob-1" stroke="none" stroke-width="1" fill="none" fill-rule="evenodd">
        <path d="M16.1681457,39.6583185 C13.1109843,39.0401659 10.3022978,37.5586888 7.9062956,35.6311081 C6.81688725,34.7556224 5.84003283,33.7735319 4.93820102,32.7138361 C4.33942054,32.0102436 3.82114433,31.2521208 3.35328332,30.463985 C2.30852843,29.1547518 1.46943553,27.6924908 0.916668924,26.1302122 C-0.100837753,23.2571024 -0.257124858,20.1662612 0.377466408,17.1957062 C0.95952184,14.4659576 2.33369602,12.0449149 4.27364072,10.0196163 C4.45921665,9.74415852 4.65111449,9.47228673 4.84909416,9.2036891 C5.26954088,8.63269988 5.74000268,8.09983117 6.19481976,7.55624351 C7.97191538,5.4368129 10.2022676,3.65083938 12.6624091,2.33533073 C15.3288128,0.911697009 18.3047097,0.0986541954 21.3431455,0.00576954011 C22.8623634,-0.0399127159 24.4003069,0.190018707 25.8710702,0.541717509 C27.1745831,0.852333463 28.4343628,1.33347832 29.6268822,1.92574954 C30.3474194,2.2835679 31.0476304,2.64442654 31.7243944,3.07680987 C32.9997788,3.89141181 34.1594883,4.8491021 35.1942002,5.94231903 C37.3229618,8.18659628 38.7874832,10.9150587 39.4626867,13.8993339 C39.9378299,16.0035241 40.0737909,18.1747175 39.9643979,20.3261101 C39.8909358,21.7741051 39.6689889,23.1855387 39.3563747,24.6015327 C39.0343976,26.0616889 38.4561033,27.4365611 37.7699765,28.76579 C36.3335836,31.5475353 33.8453536,33.7202489 31.202357,35.3920558 C30.9934541,35.5242693 30.7813502,35.6521562 30.5665654,35.7759894 C29.0936415,37.0913032 27.3934891,38.1579371 25.531888,38.8924781 C23.6425585,39.6374263 21.6115864,40 19.5794939,40 C18.4343888,40 17.2891236,39.8849368 16.1681457,39.6583185 Z" id="Blob" fill="#0062C3"></path>
    </g>
</svg>

<svg width="40" height="40" viewBox="0 0 40 40" xmlns="http://www.w3.org/2000/svg"><g id="Sub-Atomic/Blobs/Blob-1" stroke="none" stroke-width="1" fill-rule="evenodd"><path d="M16.168 39.658c-3.057-.618-5.866-2.1-8.262-4.027a22.013 22.013 0 0 1-2.968-2.917 16.242 16.242 0 0 1-1.585-2.25C2.31 29.154 1.47 27.692.917 26.13c-1.018-2.873-1.174-5.964-.54-8.934.583-2.73 1.957-5.151 3.897-7.176.185-.276.377-.548.575-.816.42-.571.891-1.104 1.346-1.648 1.777-2.12 4.007-3.905 6.467-5.22a19.748 19.748 0 0 1 8.681-2.33c1.52-.046 3.057.184 4.528.536 1.304.31 2.563.791 3.756 1.384.72.358 1.42.718 2.097 1.15a18.408 18.408 0 0 1 3.47 2.866 16.972 16.972 0 0 1 4.269 7.957c.475 2.105.61 4.276.501 6.427-.073 1.448-.295 2.86-.608 4.276-.322 1.46-.9 2.835-1.586 4.164-1.436 2.782-3.925 4.954-6.568 6.626-.209.132-.42.26-.635.384a16.865 16.865 0 0 1-5.035 3.116A16.252 16.252 0 0 1 19.579 40c-1.145 0-2.29-.115-3.41-.342Z" id="Blob"/></g></svg>
